;FLAVOR:Marlin
;TIME:5149
;Filament used: 7.389m
;Layer height: 0.3
;MINX:8.168
;MINY:30.094
;MINZ:0.3
;MAXX:191.832
;MAXY:171.965
;MAXZ:12.3
;Generated with Cura_SteamEngine 4.6.0
M82 ;absolute extrusion mode
G21
G90
M82
M107 T0
M140 S60
M104 S190 T0
M190 S60
M109 S190 T0
G28
G92 E0
G1 Z15.0 F120
G0 E3 F200
G92 E0
G92 E0
G92 E0
G1 F1500 E-6.5
;LAYER_COUNT:41
;LAYER:0
M107
G0 F3600 X13.058 Y30.885 Z0.3
;TYPE:SKIRT
G1 F1500 E0
G1 F1800 X13.784 Y30.575 E0.03938
G1 X14.538 Y30.34 E0.07879
G1 X15.312 Y30.183 E0.11819
G1 X16.476 Y30.095 E0.17643
G1 X20.084 Y30.094 E0.35643
G1 X20.873 Y30.134 E0.39584
G1 X21.653 Y30.253 E0.43521
G1 X22.418 Y30.451 E0.47463
G1 X23.158 Y30.725 E0.514
G1 X23.868 Y31.072 E0.55343
G1 X24.538 Y31.489 E0.5928
G1 X25.163 Y31.972 E0.63221
G1 X25.735 Y32.516 E0.67159
G1 X26.25 Y33.115 E0.711
G1 X26.702 Y33.762 E0.75037
G1 X27.086 Y34.453 E0.78981
G1 X27.398 Y35.178 E0.82919
G1 X27.635 Y35.931 E0.86858
G1 X27.795 Y36.705 E0.90801
G1 X27.876 Y37.49 E0.94738
G1 X27.886 Y37.892 E0.96744
G1 X27.889 Y53.956 E1.76888
G1 X27.984 Y54.168 E1.78047
G1 X28.193 Y54.78 E1.81273
G1 X28.397 Y55.543 E1.85213
G1 X28.522 Y56.323 E1.89155
G1 X28.568 Y57.167 E1.93372
G1 X28.572 Y90.318 E3.58763
G1 X28.904 Y96.626 E3.90277
G1 X29.874 Y102.751 E4.21215
G1 X31.481 Y108.741 E4.52156
G1 X33.706 Y114.532 E4.83107
G1 X36.519 Y120.048 E5.13998
G1 X39.904 Y125.255 E5.44983
G1 X43.805 Y130.068 E5.75892
G1 X48.178 Y134.438 E6.06735
G1 X53.007 Y138.343 E6.37719
G1 X58.215 Y141.721 E6.68688
G1 X63.732 Y144.527 E6.99568
G1 X69.566 Y146.762 E7.30737
G1 X76.981 Y148.848 E7.69167
G1 X84.58 Y150.355 E8.07817
G1 X86.859 Y150.624 E8.19265
G1 X86.888 Y150.582 E8.1952
G1 X87.634 Y149.567 E8.25805
G1 X87.705 Y149.47 E8.26404
G1 X88.206 Y148.859 E8.30346
G1 X88.569 Y148.485 E8.32947
G1 X89.474 Y147.613 E8.39216
G1 X89.521 Y147.568 E8.39541
G1 X90.114 Y147.046 E8.43483
G1 X90.582 Y146.703 E8.46377
G1 X91.589 Y146.02 E8.52448
G1 X91.675 Y145.961 E8.52968
G1 X92.348 Y145.548 E8.56908
G1 X92.868 Y145.289 E8.59806
G1 X93.988 Y144.781 E8.65941
G1 X94.082 Y144.738 E8.66457
G1 X94.816 Y144.446 E8.70398
G1 X95.361 Y144.283 E8.73236
G1 X96.541 Y143.976 E8.79319
G1 X96.591 Y143.962 E8.79578
G1 X97.362 Y143.793 E8.83516
G1 X97.986 Y143.715 E8.86654
G1 X99.207 Y143.612 E8.92767
G1 X99.246 Y143.608 E8.92962
G1 X100.035 Y143.571 E8.96903
G1 X100.658 Y143.599 E9.00014
G1 X101.911 Y143.705 E9.06288
G1 X102.104 Y143.723 E9.07255
G1 X102.885 Y143.838 E9.11193
G1 X103.325 Y143.939 E9.13446
G1 X104.541 Y144.256 E9.19715
G1 X104.636 Y144.281 E9.20205
G1 X105.389 Y144.518 E9.24144
G1 X105.901 Y144.729 E9.26906
G1 X107.029 Y145.242 E9.33089
G1 X107.122 Y145.284 E9.33598
G1 X107.825 Y145.645 E9.3754
G1 X108.291 Y145.938 E9.40287
G1 X109.332 Y146.644 E9.46562
G1 X109.419 Y146.703 E9.47086
G1 X110.049 Y147.179 E9.51026
G1 X110.456 Y147.545 E9.53757
G1 X111.345 Y148.403 E9.59921
G1 X111.419 Y148.474 E9.60432
G1 X111.961 Y149.049 E9.64374
G1 X112.302 Y149.48 E9.67116
G1 X113.048 Y150.494 E9.73397
G1 X113.141 Y150.624 E9.74194
G1 X115.424 Y150.354 E9.85664
G1 X123.022 Y148.847 E10.24309
G1 X130.424 Y146.766 E10.62669
G1 X136.272 Y144.526 E10.93912
G1 X141.791 Y141.717 E11.24807
G1 X147.001 Y138.338 E11.55788
G1 X151.819 Y134.441 E11.86704
G1 X156.192 Y130.071 E12.17547
G1 X160.103 Y125.245 E12.48538
G1 X163.483 Y120.042 E12.79492
G1 X166.297 Y114.523 E13.10399
G1 X168.521 Y108.735 E13.41334
G1 X170.125 Y102.755 E13.72223
G1 X171.096 Y96.624 E14.03192
G1 X171.432 Y90.234 E14.35116
G1 X171.436 Y57.113 E16.00357
G1 X171.476 Y56.324 E16.04298
G1 X171.596 Y55.544 E16.08236
G1 X171.794 Y54.779 E16.12178
G1 X172.029 Y54.132 E16.15612
G1 X172.114 Y53.934 E16.16687
G1 X172.114 Y37.895 E16.96706
G1 X172.154 Y37.106 E17.00648
G1 X172.273 Y36.326 E17.04584
G1 X172.471 Y35.561 E17.08526
G1 X172.745 Y34.821 E17.12463
G1 X173.093 Y34.112 E17.16404
G1 X173.511 Y33.441 E17.20348
G1 X173.994 Y32.817 E17.24284
G1 X174.537 Y32.244 E17.28223
G1 X175.136 Y31.729 E17.32164
G1 X175.784 Y31.278 E17.36103
G1 X176.475 Y30.894 E17.40047
G1 X177.2 Y30.582 E17.43984
G1 X177.953 Y30.345 E17.47923
G1 X178.727 Y30.186 E17.51865
G1 X179.512 Y30.105 E17.55802
G1 X179.912 Y30.095 E17.57798
G1 X183.512 Y30.094 E17.75759
G1 X184.301 Y30.134 E17.797
G1 X185.081 Y30.253 E17.83637
G1 X185.846 Y30.451 E17.87579
G1 X186.586 Y30.725 E17.91516
G1 X187.296 Y31.072 E17.95459
G1 X187.966 Y31.489 E17.99396
G1 X188.591 Y31.972 E18.03336
G1 X189.163 Y32.516 E18.07275
G1 X189.678 Y33.115 E18.11216
G1 X190.13 Y33.762 E18.15153
G1 X190.514 Y34.453 E18.19097
G1 X190.826 Y35.178 E18.23035
G1 X191.063 Y35.931 E18.26973
G1 X191.223 Y36.705 E18.30917
G1 X191.304 Y37.49 E18.34854
G1 X191.314 Y37.894 E18.3687
G1 X191.314 Y38.585 E18.40317
G1 X191.83 Y60.999 E19.52171
G1 X191.832 Y61.179 E19.53069
G1 X191.832 Y90.434 E20.99023
G1 X191.821 Y90.841 E21.01054
G1 X191.433 Y98.261 E21.38123
G1 X191.421 Y98.463 E21.39133
G1 X191.342 Y99.164 E21.42652
G1 X190.18 Y106.502 E21.79718
G1 X190.157 Y106.642 E21.80426
G1 X189.995 Y107.393 E21.84259
G1 X188.071 Y114.567 E22.21315
G1 X188.038 Y114.687 E22.21935
G1 X187.795 Y115.431 E22.2584
G1 X185.132 Y122.367 E22.62907
G1 X185.088 Y122.479 E22.63507
G1 X184.766 Y123.199 E22.67442
G1 X181.35 Y129.899 E23.04963
G1 X180.941 Y130.607 E23.09042
G1 X176.892 Y136.836 E23.46107
G1 X176.818 Y136.948 E23.46777
G1 X176.363 Y137.571 E23.50625
G1 X171.686 Y143.344 E23.87693
G1 X171.608 Y143.44 E23.8831
G1 X171.08 Y144.023 E23.92234
G1 X165.825 Y149.273 E24.29293
G1 X165.72 Y149.377 E24.30031
G1 X165.153 Y149.883 E24.33822
G1 X159.377 Y154.556 E24.70889
G1 X159.292 Y154.624 E24.71432
G1 X158.643 Y155.094 E24.75429
G1 X152.411 Y159.136 E25.12488
G1 X152.318 Y159.197 E25.13043
G1 X151.628 Y159.593 E25.17012
G1 X145.006 Y162.962 E25.54079
G1 X144.911 Y163.01 E25.5461
G1 X144.178 Y163.335 E25.5861
G1 X137.24 Y165.993 E25.95677
G1 X137.202 Y166.008 E25.95881
G1 X136.474 Y166.252 E25.99712
G1 X128.172 Y168.586 E26.42736
G1 X128.044 Y168.622 E26.434
G1 X127.479 Y168.756 E26.46297
G1 X119.029 Y170.434 E26.89277
G1 X118.924 Y170.455 E26.89811
G1 X118.307 Y170.552 E26.92927
G1 X109.787 Y171.557 E27.35728
G1 X109.682 Y171.57 E27.36256
G1 X109.029 Y171.623 E27.39525
G1 X100.411 Y171.96 E27.82553
G1 X100.368 Y171.962 E27.82768
G1 X99.695 Y171.965 E27.86125
G1 X90.908 Y171.62 E28.29998
G1 X90.363 Y171.575 E28.32726
G1 X81.797 Y170.565 E28.75758
G1 X81.639 Y170.546 E28.76552
G1 X81.088 Y170.457 E28.79337
G1 X72.627 Y168.778 E29.22372
G1 X72.51 Y168.755 E29.22967
G1 X71.928 Y168.615 E29.25953
G1 X63.626 Y166.28 E29.68979
G1 X63.484 Y166.239 E29.69716
G1 X62.847 Y166.026 E29.73067
G1 X55.909 Y163.369 E30.10133
G1 X55.773 Y163.316 E30.10861
G1 X55.076 Y163.003 E30.14673
G1 X48.456 Y159.636 E30.51726
G1 X48.321 Y159.567 E30.52483
G1 X47.665 Y159.186 E30.56268
G1 X41.433 Y155.145 E30.93323
G1 X41.314 Y155.066 E30.94036
G1 X40.696 Y154.615 E30.97853
G1 X34.919 Y149.943 E31.3492
G1 X34.818 Y149.861 E31.35569
G1 X34.24 Y149.338 E31.39458
G1 X28.985 Y144.088 E31.76517
G1 X28.876 Y143.978 E31.7729
G1 X28.374 Y143.416 E31.81049
G1 X23.696 Y137.644 E32.18116
G1 X23.624 Y137.554 E32.18691
G1 X23.159 Y136.913 E32.22642
G1 X19.11 Y130.686 E32.59699
G1 X19.032 Y130.565 E32.60417
G1 X18.65 Y129.899 E32.64247
G1 X15.276 Y123.282 E33.01304
G1 X15.223 Y123.178 E33.01886
G1 X14.902 Y122.452 E33.05846
G1 X12.239 Y115.518 E33.42903
G1 X12.194 Y115.401 E33.43529
G1 X11.953 Y114.655 E33.4744
G1 X10.029 Y107.481 E33.84496
G1 X10.014 Y107.425 E33.84785
G1 X9.835 Y106.593 E33.89031
G1 X8.673 Y99.255 E34.26097
G1 X8.666 Y99.213 E34.26309
G1 X8.573 Y98.351 E34.30635
G1 X8.191 Y91.044 E34.67139
G1 X8.185 Y90.954 E34.67589
G1 X8.168 Y90.435 E34.7018
G1 X8.168 Y61.455 E36.14762
G1 X8.174 Y60.844 E36.1781
G1 X8.187 Y60.253 E36.20759
G1 X8.187 Y60.249 E36.20779
G1 X8.675 Y38.873 E37.27452
G1 X8.678 Y37.873 E37.32442
G1 X8.72 Y37.085 E37.36378
G1 X8.842 Y36.304 E37.40322
G1 X9.042 Y35.541 E37.44257
G1 X9.318 Y34.801 E37.48198
G1 X9.668 Y34.093 E37.52138
G1 X10.087 Y33.423 E37.5608
G1 X10.572 Y32.8 E37.60019
G1 X11.117 Y32.229 E37.63957
G1 X11.718 Y31.716 E37.679
G1 X12.367 Y31.266 E37.7184
G1 X13.058 Y30.885 E37.75776
G0 F3600 X13.432 Y31.151
G1 F1800 X14.149 Y30.871 E37.79617
G1 X14.891 Y30.667 E37.83456
G1 X15.649 Y30.542 E37.87289
G1 X16.476 Y30.495 E37.91421
G1 X20.084 Y30.494 E38.09422
G1 X20.852 Y30.534 E38.13258
G1 X21.612 Y30.653 E38.17096
G1 X22.355 Y30.851 E38.20932
G1 X23.074 Y31.124 E38.24769
G1 X23.761 Y31.471 E38.28609
G1 X24.408 Y31.887 E38.32447
G1 X25.008 Y32.368 E38.36283
G1 X25.555 Y32.909 E38.40122
G1 X26.043 Y33.503 E38.43957
G1 X26.466 Y34.145 E38.47793
G1 X26.821 Y34.828 E38.51633
G1 X27.103 Y35.544 E38.55472
G1 X27.309 Y36.285 E38.59309
G1 X27.437 Y37.043 E38.63144
G1 X27.486 Y37.892 E38.67387
G1 X27.489 Y54.063 E39.48065
G1 X27.749 Y54.703 E39.51511
G1 X27.813 Y54.902 E39.52554
G1 X28.01 Y55.646 E39.56394
G1 X28.129 Y56.406 E39.60231
G1 X28.168 Y57.167 E39.64033
G1 X28.172 Y90.32 E41.29434
G1 X28.506 Y96.672 E41.61168
G1 X29.483 Y102.838 E41.92314
G1 X31.099 Y108.865 E42.23445
G1 X33.338 Y114.69 E42.54579
G1 X36.172 Y120.247 E42.857
G1 X39.583 Y125.495 E43.16927
G1 X43.507 Y130.336 E43.48017
G1 X47.911 Y134.736 E43.79075
G1 X52.774 Y138.669 E44.10278
G1 X58.006 Y142.063 E44.41392
G1 X63.578 Y144.897 E44.7258
G1 X69.435 Y147.14 E45.0387
G1 X76.886 Y149.236 E45.42486
G1 X84.519 Y150.75 E45.81309
G1 X87.051 Y151.049 E45.94029
G1 X87.21 Y150.819 E45.95424
G1 X87.956 Y149.804 E46.01709
G1 X88.027 Y149.707 E46.02308
G1 X88.515 Y149.113 E46.06144
G1 X88.846 Y148.773 E46.08511
G1 X89.751 Y147.901 E46.14781
G1 X89.8 Y147.854 E46.1512
G1 X90.378 Y147.347 E46.18955
G1 X90.807 Y147.034 E46.21605
G1 X91.85 Y146.327 E46.27891
G1 X91.902 Y146.291 E46.28207
G1 X92.558 Y145.889 E46.32045
G1 X93.033 Y145.653 E46.34691
G1 X94.178 Y145.134 E46.40963
G1 X94.249 Y145.102 E46.41352
G1 X94.964 Y144.818 E46.4519
G1 X95.462 Y144.67 E46.47782
G1 X96.649 Y144.361 E46.53901
G1 X96.696 Y144.348 E46.54144
G1 X97.447 Y144.184 E46.5798
G1 X98.02 Y144.113 E46.6086
G1 X99.274 Y144.007 E46.67139
G1 X99.285 Y144.006 E46.67194
G1 X100.053 Y143.971 E46.71029
G1 X100.624 Y143.997 E46.73881
G1 X101.877 Y144.103 E46.80155
G1 X102.065 Y144.121 E46.81097
G1 X102.826 Y144.234 E46.84935
G1 X103.224 Y144.326 E46.86973
G1 X104.44 Y144.643 E46.93242
G1 X104.535 Y144.668 E46.93733
G1 X105.268 Y144.9 E46.97568
G1 X105.736 Y145.093 E47.00094
G1 X106.882 Y145.614 E47.06374
G1 X106.958 Y145.649 E47.06792
G1 X107.641 Y146.001 E47.10625
G1 X108.067 Y146.269 E47.13136
G1 X109.109 Y146.976 E47.19418
G1 X109.194 Y147.035 E47.19935
G1 X109.808 Y147.499 E47.23774
G1 X110.178 Y147.833 E47.26261
G1 X111.068 Y148.691 E47.32429
G1 X111.142 Y148.762 E47.3294
G1 X111.669 Y149.323 E47.3678
G1 X111.98 Y149.717 E47.39285
G1 X112.726 Y150.731 E47.45565
G1 X112.942 Y151.05 E47.47487
G1 X115.483 Y150.75 E47.60252
G1 X123.12 Y149.235 E47.99096
G1 X130.556 Y147.144 E48.37633
G1 X136.433 Y144.892 E48.69032
G1 X141.993 Y142.064 E49.00153
G1 X147.235 Y138.663 E49.31328
G1 X152.086 Y134.739 E49.62456
G1 X156.49 Y130.339 E49.93515
G1 X160.428 Y125.479 E50.24722
G1 X163.827 Y120.248 E50.55845
G1 X166.663 Y114.686 E50.86993
G1 X168.904 Y108.853 E51.18168
G1 X170.516 Y102.843 E51.49212
G1 X171.494 Y96.67 E51.80393
G1 X171.832 Y90.236 E52.12537
G1 X171.836 Y57.113 E53.77788
G1 X171.876 Y56.345 E53.81625
G1 X171.996 Y55.585 E53.85463
G1 X172.193 Y54.842 E53.89298
G1 X172.398 Y54.285 E53.92259
G1 X172.514 Y54.022 E53.93693
G1 X172.514 Y37.895 E54.74151
G1 X172.554 Y37.127 E54.77988
G1 X172.673 Y36.367 E54.81826
G1 X172.871 Y35.624 E54.85662
G1 X173.145 Y34.905 E54.89501
G1 X173.492 Y34.219 E54.93336
G1 X173.908 Y33.572 E54.97174
G1 X174.389 Y32.972 E55.0101
G1 X174.93 Y32.425 E55.04849
G1 X175.525 Y31.937 E55.08688
G1 X176.167 Y31.514 E55.12524
G1 X176.85 Y31.159 E55.16364
G1 X177.565 Y30.878 E55.20197
G1 X178.307 Y30.672 E55.24039
G1 X179.065 Y30.544 E55.27874
G1 X179.912 Y30.495 E55.32106
G1 X183.512 Y30.494 E55.50067
G1 X184.28 Y30.534 E55.53904
G1 X185.04 Y30.653 E55.57742
G1 X185.783 Y30.851 E55.61578
G1 X186.502 Y31.124 E55.65415
G1 X187.189 Y31.471 E55.69255
G1 X187.836 Y31.887 E55.73092
G1 X188.436 Y32.368 E55.76929
G1 X188.983 Y32.909 E55.80767
G1 X189.471 Y33.503 E55.84602
G1 X189.894 Y34.145 E55.88438
G1 X190.249 Y34.828 E55.92278
G1 X190.531 Y35.544 E55.96117
G1 X190.737 Y36.285 E55.99955
G1 X190.865 Y37.043 E56.0379
G1 X190.914 Y37.894 E56.08042
G1 X190.914 Y38.595 E56.1154
G1 X191.43 Y61.009 E57.23393
G1 X191.432 Y61.179 E57.24241
G1 X191.432 Y90.434 E58.70195
G1 X191.422 Y90.82 E58.72122
G1 X191.034 Y98.24 E59.09191
G1 X191.022 Y98.436 E59.1017
G1 X190.947 Y99.101 E59.13509
G1 X189.785 Y106.439 E59.50575
G1 X189.762 Y106.577 E59.51273
G1 X189.608 Y107.29 E59.54912
G1 X187.684 Y114.464 E59.91968
G1 X187.652 Y114.582 E59.92578
G1 X187.421 Y115.287 E59.96279
G1 X184.758 Y122.223 E60.33346
G1 X184.715 Y122.334 E60.3394
G1 X184.41 Y123.017 E60.37672
G1 X180.994 Y129.717 E60.75192
G1 X180.605 Y130.389 E60.79066
G1 X176.556 Y136.618 E61.16131
G1 X176.484 Y136.728 E61.16787
G1 X176.052 Y137.319 E61.20439
G1 X171.375 Y143.092 E61.57506
G1 X171.298 Y143.187 E61.58116
G1 X170.797 Y143.74 E61.61839
G1 X165.542 Y148.99 E61.98898
G1 X165.439 Y149.092 E61.99622
G1 X164.901 Y149.572 E62.03219
G1 X159.125 Y154.245 E62.40285
G1 X159.041 Y154.313 E62.40824
G1 X158.426 Y154.758 E62.44612
G1 X152.194 Y158.8 E62.8167
G1 X152.101 Y158.86 E62.82222
G1 X151.447 Y159.236 E62.85986
G1 X144.825 Y162.605 E63.23053
G1 X144.73 Y162.653 E63.23584
G1 X144.035 Y162.961 E63.27377
G1 X137.144 Y165.601 E63.64193
G1 X137.057 Y165.635 E63.64659
G1 X136.366 Y165.867 E63.68295
G1 X128.064 Y168.201 E64.1132
G1 X127.937 Y168.236 E64.11977
G1 X127.401 Y168.363 E64.14725
G1 X118.94 Y170.043 E64.57761
G1 X118.845 Y170.062 E64.58245
G1 X118.261 Y170.155 E64.61195
G1 X109.738 Y171.16 E65.04011
G1 X109.633 Y171.173 E65.04539
G1 X109.013 Y171.223 E65.07642
G1 X100.455 Y171.558 E65.50371
G1 X100.349 Y171.563 E65.509
G1 X99.711 Y171.565 E65.54083
G1 X91.093 Y171.228 E65.97111
G1 X90.927 Y171.221 E65.9794
G1 X90.409 Y171.178 E66.00534
G1 X81.843 Y170.168 E66.43566
G1 X81.688 Y170.149 E66.44345
G1 X81.166 Y170.064 E66.46983
G1 X72.705 Y168.385 E66.90018
G1 X72.589 Y168.362 E66.90608
G1 X72.036 Y168.23 E66.93445
G1 X63.734 Y165.895 E67.36471
G1 X63.595 Y165.855 E67.37192
G1 X62.991 Y165.653 E67.4037
G1 X56.053 Y162.996 E67.77435
G1 X55.918 Y162.943 E67.78159
G1 X55.257 Y162.647 E67.81772
G1 X48.637 Y159.28 E68.18826
G1 X48.505 Y159.212 E68.19566
G1 X47.883 Y158.85 E68.23157
G1 X41.651 Y154.809 E68.60213
G1 X41.534 Y154.732 E68.60912
G1 X40.948 Y154.304 E68.64532
G1 X35.171 Y149.632 E69.01599
G1 X35.071 Y149.551 E69.02241
G1 X34.523 Y149.055 E69.05929
G1 X29.268 Y143.805 E69.42988
G1 X29.161 Y143.697 E69.43746
G1 X28.685 Y143.164 E69.47312
G1 X24.007 Y137.392 E69.84378
G1 X23.935 Y137.303 E69.84949
G1 X23.494 Y136.695 E69.88697
G1 X19.445 Y130.468 E70.25753
G1 X19.369 Y130.35 E70.26454
G1 X19.007 Y129.717 E70.30091
G1 X15.633 Y123.1 E70.67148
G1 X15.58 Y122.997 E70.67726
G1 X15.275 Y122.309 E70.7148
G1 X12.612 Y115.375 E71.08538
G1 X12.568 Y115.259 E71.09157
G1 X12.34 Y114.552 E71.12863
G1 X10.416 Y107.378 E71.49919
G1 X10.4 Y107.32 E71.50219
G1 X10.23 Y106.53 E71.5425
G1 X9.068 Y99.192 E71.91316
G1 X9.061 Y99.148 E71.91538
G1 X8.972 Y98.33 E71.95643
G1 X8.59 Y91.017 E72.32178
G1 X8.568 Y90.435 E72.35084
G1 X8.568 Y61.459 E73.79645
G1 X8.574 Y60.848 E73.82694
G1 X8.587 Y60.262 E73.85618
