;FLAVOR:Marlin
;TIME:4583
;Filament used: 7.99311m
;Layer height: 0.3
;MINX:6.184
;MINY:5.086
;MINZ:0.3
;MAXX:193.688
;MAXY:194.908
;MAXZ:12.3
;Generated with Cura_SteamEngine 4.6.0
M82 ;absolute extrusion mode
G21
G90
M82
M107 T0
M140 S60
M104 S210 T0
M190 S60
M109 S210 T0
G28
G92 E0
G1 Z15.0 F120
G0 E3 F200
G92 E0
G92 E0
G92 E0
G1 F1500 E-6.5
;LAYER_COUNT:41
;LAYER:0
M107
G0 F3600 X26.834 Y15.722 Z0.3
;TYPE:SKIRT
G1 F1500 E0
G1 F2250 X27.029 Y15.394 E0.01904
G1 X27.314 Y14.969 E0.04457
G1 X31.801 Y8.741 E0.42752
G1 X32.287 Y8.133 E0.46636
G1 X32.463 Y7.934 E0.47961
G1 X33.016 Y7.369 E0.51905
G1 X33.622 Y6.864 E0.55841
G1 X34.312 Y6.401 E0.59987
G1 X34.567 Y6.249 E0.61468
G1 X35.265 Y5.88 E0.65407
G1 X35.997 Y5.583 E0.69348
G1 X36.911 Y5.326 E0.74085
G1 X37.202 Y5.263 E0.7557
G1 X37.981 Y5.135 E0.79509
G1 X38.769 Y5.086 E0.83447
G1 X39.655 Y5.127 E0.87872
G1 X39.916 Y5.154 E0.89182
G1 X40.696 Y5.275 E0.9312
G1 X41.779 Y5.583 E0.98737
G1 X41.944 Y5.643 E0.99613
G1 X42.671 Y5.95 E1.0355
G1 X43.364 Y6.329 E1.07491
G1 X44.017 Y6.77 E1.11422
G1 X44.639 Y7.257 E1.15363
G1 X45.208 Y7.804 E1.19301
G1 X45.881 Y8.626 E1.24601
G1 X46.051 Y8.865 E1.26064
G1 X46.476 Y9.531 E1.30006
G1 X46.831 Y10.236 E1.33944
G1 X47.161 Y11.128 E1.38689
G1 X47.246 Y11.409 E1.40153
G1 X47.436 Y12.175 E1.44091
G1 X47.548 Y12.957 E1.48032
G1 X47.576 Y13.929 E1.52883
G1 X47.566 Y14.226 E1.54366
G1 X47.499 Y15.013 E1.58306
G1 X47.353 Y15.789 E1.62246
G1 X47.073 Y16.703 E1.67015
G1 X46.971 Y16.975 E1.68464
G1 X46.657 Y17.699 E1.72401
G1 X46.271 Y18.388 E1.76342
G1 X45.914 Y18.913 E1.79509
G1 X45.865 Y18.983 E1.79935
G1 X41.744 Y24.7 E2.15095
G1 X38.474 Y30.535 E2.48466
G1 X35.888 Y36.698 E2.8181
G1 X34.013 Y43.126 E3.15216
G1 X32.878 Y49.725 E3.48622
G1 X32.486 Y56.624 E3.83097
G1 X32.486 Y92.654 E5.62851
G1 X32.49 Y93.009 E5.64622
G1 X32.912 Y100.235 E6.00735
G1 X34.147 Y107.19 E6.35976
G1 X36.185 Y113.959 E6.71244
G1 X38.997 Y120.434 E7.06463
G1 X42.537 Y126.525 E7.4161
G1 X46.795 Y132.202 E7.77014
G1 X51.653 Y137.305 E8.12165
G1 X57.09 Y141.823 E8.47434
G1 X63.007 Y145.666 E8.82633
G1 X69.374 Y148.814 E9.18069
G1 X76.738 Y151.505 E9.57184
G1 X84.37 Y153.457 E9.96486
G1 X92.146 Y154.633 E10.35722
G1 X100.003 Y155.026 E10.7497
G1 X107.868 Y154.631 E11.14258
G1 X115.635 Y153.456 E11.53448
G1 X123.283 Y151.499 E11.92834
G1 X130.626 Y148.814 E12.3184
G1 X136.997 Y145.664 E12.67298
G1 X142.914 Y141.818 E13.02506
G1 X148.347 Y137.306 E13.3774
G1 X153.213 Y132.193 E13.72954
G1 X157.454 Y126.538 E14.0822
G1 X161.008 Y120.426 E14.43493
G1 X163.814 Y113.961 E14.78654
G1 X165.855 Y107.183 E15.1397
G1 X167.088 Y100.237 E15.49165
G1 X167.514 Y92.946 E15.85602
G1 X167.509 Y56.532 E17.67272
G1 X167.121 Y49.716 E18.01332
G1 X165.988 Y43.129 E18.34678
G1 X164.115 Y36.705 E18.68062
G1 X161.527 Y30.539 E19.01424
G1 X158.256 Y24.701 E19.3481
G1 X154.087 Y18.917 E19.70381
G1 X153.565 Y18.086 E19.75277
G1 X153.412 Y17.805 E19.76873
G1 X153.07 Y17.093 E19.80814
G1 X152.801 Y16.35 E19.84756
G1 X152.581 Y15.431 E19.89471
G1 X152.53 Y15.142 E19.90935
G1 X152.432 Y14.358 E19.94877
G1 X152.414 Y13.568 E19.98819
G1 X152.449 Y13.001 E20.01653
G1 X152.554 Y12.218 E20.05594
G1 X152.845 Y11.11 E20.1131
G1 X152.941 Y10.83 E20.12787
G1 X153.234 Y10.097 E20.16725
G1 X153.6 Y9.398 E20.20661
G1 X154.12 Y8.626 E20.25305
G1 X154.301 Y8.389 E20.26793
G1 X154.811 Y7.786 E20.30733
G1 X155.38 Y7.238 E20.34674
G1 X156.24 Y6.589 E20.40049
G1 X156.49 Y6.426 E20.41538
G1 X157.172 Y6.029 E20.45475
G1 X157.892 Y5.703 E20.49418
G1 X158.852 Y5.394 E20.5445
G1 X159.135 Y5.323 E20.55905
G1 X159.91 Y5.17 E20.59847
G1 X160.696 Y5.096 E20.63785
G1 X161.617 Y5.111 E20.68381
G1 X161.91 Y5.133 E20.69847
G1 X162.693 Y5.232 E20.73784
G1 X163.463 Y5.409 E20.77726
G1 X164.011 Y5.586 E20.80599
G1 X164.743 Y5.881 E20.84536
G1 X165.649 Y6.376 E20.89687
G1 X165.896 Y6.533 E20.91147
G1 X166.54 Y6.99 E20.95087
G1 X167.135 Y7.51 E20.99029
G1 X167.533 Y7.922 E21.01887
G1 X168.141 Y8.665 E21.06677
G1 X172.683 Y14.966 E21.45429
G1 X172.753 Y15.064 E21.46029
G1 X173.168 Y15.725 E21.49923
G1 X176.966 Y22.504 E21.8869
G1 X176.984 Y22.537 E21.88878
G1 X177.358 Y23.305 E21.93139
G1 X180.365 Y30.466 E22.31888
G1 X180.633 Y31.209 E22.35828
G1 X180.663 Y31.311 E22.36359
G1 X182.841 Y38.774 E22.75145
G1 X183.035 Y39.652 E22.79631
G1 X183.042 Y39.651 E22.79666
G1 X184.358 Y47.307 E23.18422
G1 X184.444 Y47.98 E23.21807
G1 X184.459 Y48.197 E23.22893
G1 X184.895 Y55.867 E23.6122
G1 X184.908 Y56.315 E23.63456
G1 X184.913 Y56.746 E23.65607
G1 X184.914 Y66.29 E24.13222
G1 X185.502 Y66.29 E24.16155
G1 X186.288 Y66.369 E24.20096
G1 X187.061 Y66.527 E24.24033
G1 X187.815 Y66.763 E24.27974
G1 X188.882 Y67.25 E24.33826
G1 X189.172 Y67.41 E24.35478
G1 X189.843 Y67.826 E24.39417
G1 X190.469 Y68.308 E24.43359
G1 X191.043 Y68.851 E24.47301
G1 X191.559 Y69.449 E24.51241
G1 X192.012 Y70.095 E24.55178
G1 X192.397 Y70.785 E24.5912
G1 X192.802 Y71.769 E24.64428
G1 X193.152 Y72.817 E24.69941
G1 X193.439 Y73.956 E24.75801
G1 X193.548 Y74.585 E24.78986
G1 X193.643 Y75.361 E24.82886
G1 X193.677 Y75.837 E24.85267
G1 X193.688 Y76.76 E24.89872
G1 X193.669 Y77.163 E24.91885
G1 X193.58 Y78.031 E24.96238
G1 X193.475 Y78.686 E24.99548
G1 X193.228 Y79.745 E25.04973
G1 X192.884 Y80.863 E25.10809
G1 X192.614 Y81.605 E25.14748
G1 X192.27 Y82.316 E25.18689
G1 X191.856 Y82.988 E25.22626
G1 X191.376 Y83.616 E25.2657
G1 X190.836 Y84.191 E25.30505
G1 X190.24 Y84.709 E25.34445
G1 X189.594 Y85.164 E25.38387
G1 X188.869 Y85.579 E25.42555
G1 X188.158 Y85.923 E25.46495
G1 X187.417 Y86.194 E25.50432
G1 X186.651 Y86.389 E25.54375
G1 X185.87 Y86.505 E25.58314
G1 X185.081 Y86.542 E25.62255
G1 X184.914 Y86.533 E25.63089
G1 X184.914 Y89.542 E25.78101
G1 X185.26 Y90.107 E25.81407
G1 X185.601 Y90.819 E25.85345
G1 X185.775 Y91.272 E25.87766
G1 X186.003 Y92.028 E25.91706
G1 X186.154 Y92.803 E25.95645
G1 X186.232 Y93.902 E26.01142
G1 X186.232 Y119.013 E27.26421
G1 X186.22 Y119.448 E27.28592
G1 X185.804 Y126.899 E27.65823
G1 X185.776 Y127.25 E27.6758
G1 X185.707 Y127.77 E27.70197
G1 X184.47 Y135.11 E28.07332
G1 X184.402 Y135.464 E28.09131
G1 X184.276 Y135.968 E28.11723
G1 X182.228 Y143.127 E28.48872
G1 X182.197 Y143.233 E28.49423
G1 X181.941 Y143.956 E28.53249
G1 X179.108 Y150.852 E28.90444
G1 X178.726 Y151.644 E28.94831
G1 X178.706 Y151.685 E28.95058
G1 X175.153 Y158.169 E29.31945
G1 X175.046 Y158.361 E29.33042
G1 X174.69 Y158.917 E29.36336
G1 X170.402 Y165.019 E29.73544
G1 X170.362 Y165.075 E29.73887
G1 X169.858 Y165.708 E29.77924
G1 X164.927 Y171.285 E30.15064
G1 X164.306 Y171.908 E30.19452
G1 X164.257 Y171.956 E30.19794
G1 X158.791 Y176.902 E30.56571
G1 X158.486 Y177.164 E30.58577
G1 X158.023 Y177.515 E30.61476
G1 X151.547 Y182.052 E31.00925
G1 X150.878 Y182.472 E31.04866
G1 X150.743 Y182.544 E31.05629
G1 X143.787 Y186.271 E31.45
G1 X143.581 Y186.378 E31.46158
G1 X142.936 Y186.665 E31.4968
G1 X135.577 Y189.545 E31.89106
G1 X134.975 Y189.752 E31.92282
G1 X134.852 Y189.788 E31.92921
G1 X127.277 Y191.936 E32.32203
G1 X126.714 Y192.073 E32.35094
G1 X118.969 Y193.659 E32.74536
G1 X118.395 Y193.755 E32.77439
G1 X110.699 Y194.741 E33.16149
G1 X109.912 Y194.801 E33.20086
G1 X109.122 Y194.782 E33.24029
G1 X108.339 Y194.683 E33.27966
G1 X107.57 Y194.505 E33.31904
G1 X106.822 Y194.25 E33.35847
G1 X106.104 Y193.922 E33.39785
G1 X105.651 Y193.656 E33.42406
G1 X105.617 Y193.679 E33.42611
G1 X104.924 Y194.058 E33.46551
G1 X104.197 Y194.366 E33.50491
G1 X103.442 Y194.598 E33.54431
G1 X102.668 Y194.753 E33.58369
G1 X101.85 Y194.83 E33.62468
G1 X99.966 Y194.908 E33.71876
G1 X99.262 Y194.906 E33.75388
G1 X97.297 Y194.81 E33.85203
G1 X96.512 Y194.731 E33.89139
G1 X95.738 Y194.574 E33.93079
G1 X94.984 Y194.339 E33.9702
G1 X94.258 Y194.029 E34.00958
G1 X93.566 Y193.647 E34.04902
G1 X93.513 Y193.61 E34.05224
G1 X92.913 Y193.941 E34.08643
G1 X92.186 Y194.25 E34.12584
G1 X91.432 Y194.484 E34.16522
G1 X90.658 Y194.641 E34.20463
G1 X89.872 Y194.719 E34.24403
G1 X89.082 Y194.717 E34.28345
G1 X88.458 Y194.658 E34.31472
G1 X81.029 Y193.659 E34.68869
G1 X80.468 Y193.563 E34.71708
G1 X73.001 Y192.003 E35.09765
G1 X73.003 Y191.992 E35.09821
G1 X72.454 Y191.869 E35.12628
G1 X65.136 Y189.785 E35.50589
G1 X64.533 Y189.586 E35.53757
G1 X64.44 Y189.551 E35.54253
G1 X57.373 Y186.806 E35.92077
G1 X57.02 Y186.659 E35.93985
G1 X56.552 Y186.432 E35.9658
G1 X49.834 Y182.892 E36.34464
G1 X49.336 Y182.605 E36.37332
G1 X49.064 Y182.428 E36.38951
G1 X42.796 Y178.148 E36.76817
G1 X42.396 Y177.856 E36.79288
G1 X42.081 Y177.597 E36.81322
G1 X36.343 Y172.631 E37.19182
G1 X35.932 Y172.248 E37.21984
G1 X35.696 Y172.003 E37.23682
G1 X30.57 Y166.421 E37.61491
G1 X30.438 Y166.273 E37.62481
G1 X29.999 Y165.724 E37.65988
G1 X25.53 Y159.578 E38.03899
G1 X25.048 Y158.816 E38.08398
G1 X25.043 Y158.819 E38.08427
G1 X21.313 Y152.221 E38.4624
G1 X21.121 Y151.86 E38.4828
G1 X20.914 Y151.411 E38.50747
G1 X17.958 Y144.423 E38.88601
G1 X17.671 Y143.625 E38.92832
G1 X15.516 Y136.293 E39.30959
G1 X15.385 Y135.785 E39.33576
G1 X15.311 Y135.414 E39.35463
G1 X14.018 Y127.941 E39.733
G1 X13.936 Y127.317 E39.7644
G1 X13.916 Y127.047 E39.77791
G1 X13.481 Y119.462 E40.15695
G1 X13.468 Y119.015 E40.17926
G1 X13.468 Y94.799 E41.3874
G1 X13.502 Y94.068 E41.42391
G1 X13.529 Y93.781 E41.43829
G1 X13.643 Y93 E41.47767
G1 X13.774 Y92.443 E41.50621
G1 X13.848 Y92.174 E41.52013
G1 X14.096 Y91.424 E41.55954
G1 X14.317 Y90.91 E41.58746
G1 X14.438 Y90.654 E41.60158
G1 X14.811 Y89.958 E41.64098
G1 X15.086 Y89.537 E41.66607
G1 X15.086 Y86.518 E41.81669
G1 X14.498 Y86.518 E41.84602
G1 X13.712 Y86.439 E41.88543
G1 X12.939 Y86.281 E41.92479
G1 X12.185 Y86.045 E41.96421
G1 X12.11 Y86.021 E41.96814
G1 X11.366 Y85.754 E42.00758
G1 X10.654 Y85.413 E42.04696
G1 X9.98 Y85.002 E42.08635
G1 X9.351 Y84.524 E42.12576
G1 X8.773 Y83.986 E42.16516
G1 X8.253 Y83.392 E42.20454
G1 X7.796 Y82.748 E42.24394
G1 X7.406 Y82.061 E42.28335
G1 X7.087 Y81.339 E42.32273
G1 X6.814 Y80.479 E42.36775
G1 X6.497 Y79.232 E42.43194
G1 X6.458 Y79.075 E42.44001
G1 X6.303 Y78.301 E42.47939
G1 X6.242 Y77.753 E42.5069
G1 X6.185 Y77.006 E42.54428
G1 X6.184 Y75.827 E42.6031
G1 X6.241 Y75.07 E42.64097
G1 X6.34 Y74.287 E42.68035
G1 X6.464 Y73.715 E42.70955
G1 X6.818 Y72.337 E42.78053
G1 X7.053 Y71.583 E42.81993
G1 X7.363 Y70.857 E42.85931
G1 X7.745 Y70.166 E42.8987
G1 X8.195 Y69.517 E42.9381
G1 X8.708 Y68.916 E42.97753
G1 X9.279 Y68.371 E43.01691
G1 X9.902 Y67.886 E43.0563
G1 X10.572 Y67.467 E43.09572
G1 X11.28 Y67.118 E43.1351
G1 X12.395 Y66.677 E43.19492
G1 X13.155 Y66.463 E43.23431
G1 X13.933 Y66.327 E43.27372
G1 X14.72 Y66.271 E43.31308
G1 X15.086 Y66.282 E43.33135
G1 X15.086 Y56.406 E43.82406
G1 X15.099 Y55.962 E43.84622
G1 X15.542 Y48.192 E44.2345
G1 X15.569 Y47.85 E44.25162
G1 X15.643 Y47.305 E44.27906
G1 X16.959 Y39.649 E44.66662
G1 X16.97 Y39.651 E44.66717
G1 X17.16 Y38.771 E44.71209
G1 X19.337 Y31.311 E45.09979
G1 X19.636 Y30.465 E45.14456
G1 X22.641 Y23.307 E45.53187
G1 X22.709 Y23.149 E45.54045
G1 X23.033 Y22.503 E45.5765
G1 X26.834 Y15.722 E45.96433
G0 F3600 X27.183 Y15.918
G1 F2250 X27.639 Y15.202 E46.00668
G1 X32.126 Y8.974 E46.38964
G1 X32.587 Y8.398 E46.42645
G1 X32.763 Y8.199 E46.4397
G1 X33.302 Y7.65 E46.47809
G1 X33.895 Y7.16 E46.51646
G1 X34.517 Y6.745 E46.55377
G1 X34.772 Y6.593 E46.56858
G1 X35.452 Y6.234 E46.60694
G1 X36.166 Y5.947 E46.64533
G1 X36.995 Y5.717 E46.68826
G1 X37.286 Y5.654 E46.70311
G1 X38.045 Y5.53 E46.74148
G1 X38.813 Y5.486 E46.77986
G1 X39.613 Y5.525 E46.81982
G1 X39.874 Y5.552 E46.83291
G1 X40.634 Y5.671 E46.87129
G1 X41.642 Y5.959 E46.92359
G1 X41.807 Y6.019 E46.93235
G1 X42.515 Y6.319 E46.97071
G1 X43.188 Y6.691 E47.00907
G1 X43.787 Y7.097 E47.04517
G1 X44.392 Y7.572 E47.08355
G1 X44.944 Y8.108 E47.12194
G1 X45.555 Y8.858 E47.1702
G1 X45.725 Y9.097 E47.18483
G1 X46.138 Y9.746 E47.22321
G1 X46.481 Y10.434 E47.26156
G1 X46.778 Y11.243 E47.30456
G1 X46.863 Y11.524 E47.31921
G1 X47.047 Y12.271 E47.35759
G1 X47.153 Y13.033 E47.39597
G1 X47.176 Y13.916 E47.44004
G1 X47.166 Y14.213 E47.45486
G1 X47.1 Y14.979 E47.49322
G1 X46.955 Y15.735 E47.53163
G1 X46.699 Y16.562 E47.57482
G1 X46.597 Y16.834 E47.58931
G1 X46.29 Y17.539 E47.62767
G1 X45.718 Y18.497 E47.68334
G1 X45.54 Y18.749 E47.69873
G1 X41.409 Y24.48 E48.05119
G1 X38.116 Y30.356 E48.38724
G1 X35.508 Y36.57 E48.72345
G1 X33.623 Y43.035 E49.05942
G1 X32.48 Y49.678 E49.39572
G1 X32.086 Y56.62 E49.74261
G1 X32.086 Y92.658 E51.54055
G1 X32.09 Y93.036 E51.55941
G1 X32.513 Y100.276 E51.92123
G1 X33.757 Y107.282 E52.27623
G1 X35.809 Y114.097 E52.63131
G1 X38.637 Y120.61 E52.98556
G1 X42.206 Y126.751 E53.33992
G1 X46.491 Y132.463 E53.69616
G1 X51.377 Y137.596 E54.04972
G1 X56.852 Y142.144 E54.40481
G1 X62.807 Y146.013 E54.75911
G1 X69.223 Y149.185 E55.11619
G1 X76.621 Y151.889 E55.50916
G1 X84.281 Y153.848 E55.90361
G1 X92.107 Y155.031 E56.29849
G1 X100.002 Y155.426 E56.69287
G1 X107.909 Y155.029 E57.08785
G1 X115.723 Y153.847 E57.48212
G1 X123.39 Y151.885 E57.87696
G1 X130.788 Y149.179 E58.26996
G1 X137.194 Y146.013 E58.62646
G1 X143.152 Y142.141 E58.98096
G1 X148.62 Y137.599 E59.3356
G1 X153.521 Y132.45 E59.69025
G1 X157.789 Y126.759 E60.04515
G1 X161.367 Y120.605 E60.40029
G1 X164.19 Y114.1 E60.75407
G1 X166.245 Y107.276 E61.10962
G1 X167.487 Y100.28 E61.46411
G1 X167.914 Y92.969 E61.82948
G1 X167.909 Y56.527 E63.64758
G1 X167.519 Y49.671 E63.99018
G1 X166.377 Y43.036 E64.32607
G1 X164.494 Y36.577 E64.66172
G1 X161.885 Y30.359 E64.99814
G1 X158.591 Y24.481 E65.33431
G1 X154.412 Y18.683 E65.69088
G1 X153.916 Y17.895 E65.73733
G1 X153.763 Y17.614 E65.75329
G1 X153.431 Y16.92 E65.79167
G1 X153.172 Y16.195 E65.83008
G1 X152.975 Y15.361 E65.87284
G1 X152.924 Y15.072 E65.88748
G1 X152.829 Y14.309 E65.92584
G1 X152.836 Y13.18 E65.98216
G1 X152.848 Y13.034 E65.98947
G1 X152.951 Y12.272 E66.02783
G1 X153.223 Y11.24 E66.08108
G1 X153.319 Y10.96 E66.09585
G1 X153.606 Y10.246 E66.13424
G1 X153.965 Y9.566 E66.1726
G1 X154.438 Y8.869 E66.21463
G1 X154.619 Y8.632 E66.2295
G1 X155.117 Y8.045 E66.26791
G1 X155.673 Y7.514 E66.30627
G1 X156.458 Y6.924 E66.35526
G1 X156.708 Y6.761 E66.37015
G1 X157.374 Y6.375 E66.40855
G1 X158.075 Y6.06 E66.44689
G1 X158.949 Y5.782 E66.49265
G1 X159.232 Y5.711 E66.50721
G1 X159.987 Y5.563 E66.54559
G1 X160.753 Y5.494 E66.58396
G1 X161.587 Y5.51 E66.62558
G1 X161.88 Y5.532 E66.64024
G1 X162.643 Y5.629 E66.67861
G1 X163.741 Y5.916 E66.73523
G1 X163.88 Y5.964 E66.74256
G1 X164.593 Y6.253 E66.78095
G1 X165.435 Y6.714 E66.82884
G1 X165.682 Y6.871 E66.84344
G1 X166.308 Y7.317 E66.88179
G1 X167.138 Y8.084 E66.93817
G1 X167.24 Y8.194 E66.94565
G1 X167.817 Y8.899 E66.99111
G1 X172.359 Y15.2 E67.37862
G1 X172.425 Y15.293 E67.38431
G1 X172.819 Y15.92 E67.42126
G1 X176.617 Y22.699 E67.80892
G1 X176.635 Y22.731 E67.81076
G1 X176.989 Y23.46 E67.85119
G1 X179.996 Y30.621 E68.23867
G1 X180.256 Y31.345 E68.27705
G1 X180.279 Y31.423 E68.28111
G1 X182.457 Y38.886 E68.66897
G1 X182.642 Y39.719 E68.71154
G1 X182.648 Y39.718 E68.71184
G1 X183.964 Y47.374 E69.0994
G1 X184.045 Y48.013 E69.13154
G1 X184.06 Y48.22 E69.14189
G1 X184.496 Y55.89 E69.52517
G1 X184.508 Y56.23 E69.54214
G1 X184.514 Y56.751 E69.56814
G1 X184.514 Y66.713 E70.06514
G1 X185.033 Y66.68 E70.09109
G1 X185.801 Y66.712 E70.12944
G1 X186.562 Y66.823 E70.16781
G1 X187.308 Y67.013 E70.20621
G1 X188.029 Y67.279 E70.24455
G1 X188.689 Y67.601 E70.28119
G1 X188.979 Y67.761 E70.29771
G1 X189.632 Y68.167 E70.33608
G1 X190.24 Y68.638 E70.37445
G1 X190.795 Y69.171 E70.41284
G1 X191.292 Y69.758 E70.45121
